X:15281
T:Shaskeen, The
S:John B. Walsh
Z:Boston 
Z:There are several different versions of the second part
Z:floating around.
M:C|
E:7
R:reel
K:G
|:DG ~G2 ABcA|d2ed  cA ~A2|~B3 G~A3 F|GBAG FGEF|
DG ~G2 ABcA|d2ed  cA ~A2|f2df edcA|AGFA G3 z:|
dggfg2 fg|abag fdde|f3d g2 fg|abag fd d2|
dggfg2 fg|abag fdde|~f3 d ~e3d|cAFA G3 z |
dggfg2 fg|abag fdde|f3d g2 fg|abag fddc|
~B3 G ~A3F|GBAG FD D2|f2 df edcA|AGFA G3 z||
